modules/feathericon/icons/expand.svg

<svg width="24" height="24" viewBox="0 0 24 24" xmlns="http://www.w3.org/2000/svg"><path d="M14 4h6v6l-2-2-4 4-2-2 4-4-2-2zm-4 16H4v-6l2 2 4-4 2 2-4 4 2 2z" fill="#000" fill-rule="evenodd"/></svg>

<?xml version="1.0" encoding="UTF-8"?>
<svg width="24px" height="24px" viewBox="0 0 24 24" version="1.1" xmlns="http://www.w3.org/2000/svg" xmlns:xlink="http://www.w3.org/1999/xlink">
    <!-- Generator: sketchtool 52.2 (67145) - http://www.bohemiancoding.com/sketch -->
    <title>expand</title>
    <desc>Created with sketchtool.</desc>
    <g id="media-player" stroke="none" stroke-width="1" fill="none" fill-rule="evenodd">
        <g id="expand" fill="#000000">
            <path d="M14,4 L20,4 L20,10 L18,8 L14,12 L12,10 L16,6 L14,4 Z M10,20 L4,20 L4,14 L6,16 L10,12 L12,14 L8,18 L10,20 Z" id="Shape"></path>
        </g>
    </g>
</svg>
